icon/cg/dribbble.svg

<svg viewBox="0 0 24 24" fill="none" xmlns="http://www.w3.org/2000/svg" height="1em" width="1em">
  <path fill-rule="evenodd" clip-rule="evenodd" d="M1 11.9554V12.0446C1.01066 14.7301 1.98363 17.1885 3.59196 19.0931C4.05715 19.6439 4.57549 20.1485 5.13908 20.5987C5.70631 21.0519 6.31937 21.4501 6.97019 21.7853C7.90271 22.2656 8.91275 22.6165 9.97659 22.8143C10.5914 22.9286 11.2243 22.9918 11.8705 22.9993C11.9136 22.9998 11.9567 23 11.9999 23C15.6894 23 18.9547 21.1836 20.9502 18.3962C21.3681 17.8125 21.7303 17.1861 22.0291 16.525C22.6528 15.1448 22.9999 13.613 22.9999 12C22.9999 8.73978 21.5816 5.81084 19.3283 3.79653C18.8064 3.32998 18.2397 2.91249 17.6355 2.55132C15.9873 1.56615 14.0597 1 11.9999 1C11.888 1 11.7764 1.00167 11.6653 1.00499C9.99846 1.05479 8.42477 1.47541 7.0239 2.18719C6.07085 2.67144 5.19779 3.29045 4.42982 4.01914C3.7166 4.69587 3.09401 5.4672 2.58216 6.31302C2.22108 6.90969 1.91511 7.54343 1.6713 8.20718C1.24184 9.37631 1.00523 10.6386 1 11.9554ZM20.4812 15.0186C20.8171 14.075 20.9999 13.0588 20.9999 12C20.9999 9.54265 20.0151 7.31533 18.4186 5.6912C17.5975 7.05399 16.5148 8.18424 15.2668 9.0469C15.7351 10.2626 15.9886 11.5603 16.0045 12.8778C16.7692 13.0484 17.5274 13.304 18.2669 13.6488C19.0741 14.0252 19.8141 14.487 20.4812 15.0186ZM15.8413 14.8954C16.3752 15.0321 16.904 15.22 17.4217 15.4614C18.222 15.8346 18.9417 16.3105 19.5723 16.8661C18.0688 19.2008 15.5151 20.7953 12.5788 20.9817C13.5517 20.0585 14.3709 18.9405 14.972 17.6514C15.3909 16.7531 15.678 15.8272 15.8413 14.8954ZM13.9964 12.6219C13.9583 11.7382 13.7898 10.8684 13.5013 10.0408C10.6887 11.2998 7.36584 11.3765 4.35382 9.97197C4.01251 9.81281 3.68319 9.63837 3.36632 9.44983C3.12787 10.2584 2.99991 11.1142 2.99991 12C2.99991 13.9462 3.61763 15.748 4.6677 17.2203C6.83038 14.1875 10.3685 12.4987 13.9964 12.6219ZM6.047 18.7502C7.77258 16.059 10.7714 14.5382 13.8585 14.6191C13.723 15.3586 13.4919 16.093 13.1594 16.8062C12.3777 18.4825 11.1453 19.805 9.67385 20.6965C8.31043 20.3328 7.07441 19.6569 6.047 18.7502ZM11.9999 3C13.7846 3 15.4479 3.51946 16.847 4.41543C16.2113 5.54838 15.3593 6.4961 14.368 7.23057C13.3472 5.57072 11.8752 4.16433 10.027 3.21692C10.6619 3.07492 11.3222 3 11.9999 3ZM8.80619 4.84582C10.4462 5.61056 11.7474 6.80659 12.6379 8.23588C10.3464 9.24654 7.64722 9.30095 5.19906 8.15936C4.83384 7.98905 4.48541 7.79735 4.15458 7.58645C4.91365 6.24006 6.00929 5.10867 7.32734 4.30645C7.82672 4.44058 8.32138 4.61975 8.80619 4.84582Z" fill="currentColor"/>
</svg>

<svg width="24" height="24" fill="none" xmlns="http://www.w3.org/2000/svg"><path fill-rule="evenodd" clip-rule="evenodd" d="M1 11.955v.09c.01 2.685.984 5.144 2.592 7.048a11.066 11.066 0 0 0 3.378 2.692A10.922 10.922 0 0 0 12 23c3.69 0 6.955-1.816 8.95-4.604A10.96 10.96 0 0 0 23 12c0-3.26-1.418-6.19-3.672-8.203a10.949 10.949 0 0 0-7.663-2.792A10.944 10.944 0 0 0 4.43 4.019 11.05 11.05 0 0 0 1.67 8.207 10.976 10.976 0 0 0 1 11.955Zm19.481 3.064c.336-.944.519-1.96.519-3.019a8.971 8.971 0 0 0-2.581-6.309 10.93 10.93 0 0 1-3.152 3.356c.468 1.216.722 2.513.738 3.83.764.171 1.522.427 2.262.772.807.376 1.547.838 2.214 1.37Zm-4.64-.124a9.048 9.048 0 0 1 3.731 1.971 8.995 8.995 0 0 1-6.993 4.116 10.97 10.97 0 0 0 2.393-3.33c.419-.899.706-1.825.87-2.757Zm-1.845-2.273a9.025 9.025 0 0 0-.495-2.581A10.975 10.975 0 0 1 3.366 9.45 9.002 9.002 0 0 0 3 12a8.96 8.96 0 0 0 1.668 5.22 11.017 11.017 0 0 1 9.328-4.598ZM6.047 18.75a9.01 9.01 0 0 1 7.811-4.13 9.018 9.018 0 0 1-.699 2.186 8.958 8.958 0 0 1-3.485 3.89 8.98 8.98 0 0 1-3.627-1.946ZM12 3c1.785 0 3.448.52 4.847 1.415a8.944 8.944 0 0 1-2.479 2.816 10.941 10.941 0 0 0-4.341-4.014A9.031 9.031 0 0 1 12 3ZM8.806 4.846a8.958 8.958 0 0 1 3.832 3.39 8.979 8.979 0 0 1-7.439-.077 9.084 9.084 0 0 1-1.044-.573 9.044 9.044 0 0 1 3.172-3.28c.5.135.994.314 1.48.54Z" fill="currentColor"/></svg>
